x-pack/platform/packages/shared/kbn-inference-endpoint-ui-common/src/components/providers/assets/images/jinaai.svg

<?xml version="1.0" encoding="UTF-8"?>
<svg width="1024px" height="1024px" viewBox="0 0 1024 1024" version="1.1" xmlns="http://www.w3.org/2000/svg" xmlns:xlink="http://www.w3.org/1999/xlink">
    <title>Jina-color</title>
    <g id="Jina-color" stroke="none" stroke-width="1" fill="none" fill-rule="evenodd">
        <g id="Company-logo_light" transform="translate(12, 299)" fill-rule="nonzero">
            <circle id="椭圆形备份-3" fill="#EB6161" cx="65.1896037" cy="360.034086" r="65.1896037"></circle>
            <path d="M270.558159,154.66553 C279.079676,154.66553 285.89689,161.482744 285.89689,170.004261 L285.89689,170.004261 L285.044738,294.844482 C285.044738,365.999148 227.950575,423.945462 156.79591,425.22369 L154.66553,425.22369 L154.66553,295.270558 L155.091606,295.270558 L155.517682,170.430337 C155.517682,161.90882 162.334896,155.091606 170.856412,155.091606 L270.558159,155.091606 L270.558159,154.66553 Z M470.813805,154.66553 C479.335322,154.66553 486.152535,161.482744 486.152535,170.004261 L486.152535,344.695356 C486.152535,353.216873 479.335322,360.034086 470.813805,360.034086 L371.112058,360.034086 C362.590541,360.034086 355.773328,353.216873 355.773328,344.695356 L355.773328,170.004261 C355.773328,161.482744 362.590541,154.66553 371.112058,154.66553 L470.813805,154.66553 Z M627.609715,154.239455 L629.740094,154.239455 C693.65147,155.091606 745.632723,206.646783 747.337026,270.558159 L747.337026,270.558159 L747.337026,270.558159 L747.337026,344.26928 C747.337026,352.790797 740.519813,359.60801 731.998296,359.60801 L731.998296,359.60801 L570.941628,359.60801 C562.420111,359.60801 555.602897,352.790797 555.602897,344.26928 L555.602897,169.578185 C555.602897,161.056668 562.420111,154.239455 570.941628,154.239455 L627.609715,154.239455 Z M891.35066,357.903707 L891.35066,357.903707 C837.665104,354.4951 794.631444,309.757137 794.631444,255.219429 C794.631444,198.551342 840.647635,152.535151 897.315722,152.535151 C951.85343,152.535151 996.591393,195.142735 1000,249.254367 L1000,249.254367 L1000,342.564977 C1000,351.086493 993.182787,357.903707 984.66127,357.903707 L891.35066,357.903707 Z" id="形状结合" fill="#009191"></path>
            <g id="编组备份" transform="translate(355.5559, 0)" fill="#FBCB67">
                <circle id="椭圆形" cx="65.1896037" cy="65.1896037" r="65.1896037"></circle>
            </g>
        </g>
    </g>
</svg>

<svg xmlns="http://www.w3.org/2000/svg" width="1024" height="1024"><g fill="none" fill-rule="nonzero" transform="translate(12 299)"><circle cx="65.19" cy="360.034" r="65.19" fill="#EB6161"/><path fill="#009191" d="M270.558 154.666a15.275 15.275 0 0 1 15.339 15.338l-.852 124.84c0 71.155-57.094 129.101-128.25 130.38h-2.13V295.27h.427l.426-124.84a15.275 15.275 0 0 1 15.338-15.34h99.702zm200.256 0a15.275 15.275 0 0 1 15.339 15.338v174.691a15.275 15.275 0 0 1-15.34 15.34h-99.7a15.275 15.275 0 0 1-15.34-15.34v-174.69a15.275 15.275 0 0 1 15.34-15.34zm156.796-.427h2.13c63.911.853 115.893 52.408 117.597 116.32v73.71a15.275 15.275 0 0 1-15.339 15.339H570.942a15.275 15.275 0 0 1-15.34-15.339V169.58a15.275 15.275 0 0 1 15.34-15.34zm263.74 203.665c-53.685-3.409-96.719-48.147-96.719-102.685 0-56.668 46.017-102.684 102.685-102.684 54.537 0 99.275 42.608 102.684 96.72v93.31a15.275 15.275 0 0 1-15.339 15.339z"/><circle cx="65.19" cy="65.19" r="65.19" fill="#FBCB67" transform="translate(355.556)"/></g></svg>
